Hatter-kde-dark/actions/22/find-location.svg

<?xml version="1.0" encoding="UTF-8"?>
<!DOCTYPE svg>
<svg version="1.1" viewBox="0 0 22 22" xmlns="http://www.w3.org/2000/svg">
 <defs>
  <style id="current-color-scheme" type="text/css">.ColorScheme-Text {
                color:#dedede;
            }</style>
 </defs>
 <path class="ColorScheme-Text" d="m6 3c-1.071 0-2.0622 0.57249-2.5977 1.5-0.26775 0.46375-0.40234 0.98188-0.40234 1.5v10c0 0.5181 0.1346 1.0362 0.40234 1.5 0.5355 0.9275 1.5267 1.5 2.5977 1.5h10v-1h-10c-0.71533 0-1.3748-0.3805-1.7324-1-0.35767-0.6195-0.35767-1.3805 0-2 0.35766-0.6195 1.0171-1 1.7324-1h1v-7h10v8h1v-9h-11v-3h-1zm0 1v2 1 6c-0.75025 0-1.4573 0.2863-2 0.7734v-7.7734c0-0.34513 0.08874-0.69025 0.26758-1 0.35766-0.6195 1.0171-1 1.7324-1z" fill="currentColor"/>
 <path class="ColorScheme-Text" d="m12 8c-2.2091 0-4 1.7909-4 4 0 2.2091 1.7909 4 4 4 0.8874-0.0018 1.749-0.2986 2.4492-0.8437l3.8438 3.8437 0.707-0.707-3.8418-3.8418c0.5449-0.701 0.841-1.5634 0.8418-2.4512 0-2.2091-1.7909-4-4-4zm0 1c1.6569 0 3 1.3431 3 3s-1.3431 3-3 3-3-1.3431-3-3 1.3431-3 3-3z" fill="currentColor"/>
</svg>

<!DOCTYPE svg>
<svg xmlns="http://www.w3.org/2000/svg" version="1.1" viewBox="0 0 22 22">
    <defs>
        <style id="current-color-scheme" type="text/css">
            .ColorScheme-Text {
                color:#dedede;
            }
        </style>
    </defs>
    <path style="fill:currentColor; fill-opacity:1; stroke:none" class="ColorScheme-Text" d="M 6 3 C 4.929 3 3.93784 3.57249 3.40234 4.5 C 3.13459 4.96375 3 5.48188 3 6 L 3 16 C 3 16.5181 3.1346 17.0362 3.40234 17.5 C 3.93784 18.4275 4.929 19 6 19 L 16 19 L 16 18 L 6 18 C 5.28467 18 4.62524 17.6195 4.26758 17 C 3.90991 16.3805 3.90991 15.6195 4.26758 15 C 4.62524 14.3805 5.28467 14 6 14 L 7 14 L 7 7 L 17 7 L 17 15 L 18 15 L 18 6 L 7 6 L 7 3 L 6 3 Z M 6 4 L 6 6 L 6 7 L 6 13 C 5.24975 13 4.5427 13.2863 4 13.7734 L 4 6 C 4 5.65487 4.08874 5.30975 4.26758 5 C 4.62524 4.3805 5.28467 4 6 4 Z"/>
    <path style="fill:currentColor; fill-opacity:1; stroke:none" class="ColorScheme-Text" d="M 12 8 C 9.79086 8 8 9.79086 8 12 C 8 14.2091 9.79086 16 12 16 C 12.8874 15.9982 13.749 15.7014 14.4492 15.1563 L 18.293 19 L 19 18.293 L 15.1582 14.4512 C 15.7031 13.7502 15.9992 12.8878 16 12 C 16 9.79086 14.2091 8 12 8 Z M 12 9 C 13.6569 9 15 10.3431 15 12 C 15 13.6569 13.6569 15 12 15 C 10.3431 15 9 13.6569 9 12 C 9 10.3431 10.3431 9 12 9 Z"/>
</svg>
